X: 153
T:Scottish d'Orcire
R:Scottish
C:Provence
N:Scottisch
I:abc2nwc
M:2/4
L:1/16
K:Bbmaj
B2c2 d2cB|A2G2 F4|B2B2 c2d2| [1d2f2 d2c2:| [2edc2 B4
|:d2e2 f2f2|d2e2 f4|f2f2 f2gf| [1e2d2 d2c2:| [2e2d2 c4|]
%%footer $D   Galouvielle-MBe 2008 \nScottish (France)
